X: 11592
T: Eel In The Sink, The
R: reel
M: 4/4
K: Aminor
f2Bc defd|eAcA eA (3cde|f2Bc defb|1 afec cBBA:|2 afec cB ~B2||
b2fb bafe|^defg ~a2 ga|b2fb bafe|afec cBBA|
b2fb bafe|^defg ~a2 ga|bgaf gefg|afec cBBA||
e2AB cdec|dGBG dG (3Bcd|e2AB cdea|1 gedB BAAG:|2 gedB BA ~A2||
a2ea aged|^cdef ~g2 fg|a2ea aged|gedB BAAG|
a2ea aged|^cdef ~g2 fg|afge fdef|gedB BAAG||

